X:1437
T:Adagio
C:anon.
O:Germany
N:1748
Z:Transcribed by Frank Nordberg - http://www.musicaviva.com
F:http://abc.musicaviva.com/tunes/germany/adagio-1526.abc
V:1 Program 1 6 %Harpsichord
V:2 Program 1 6 bass %Harpsichord
m: Mn3/2 = o/ (3n/4o/4n/4 o/8n/8o/8n/8
M:3/4
L:1/4
Q:1/4=96
K:F
V:1
cAB|cF z|cdc|B2A|AGF|
V:2
z F,G,|A,3|A,B,A,|G,E,F,|F,E,D,|
%
V:1
GA/=B/c|dMd3/2c/|c3::cfc|MB3/2A/B|g/f/e/d/c/B/|
V:2
C,D,E,|F,G,G,,|C,3::C/B,/A,F,|G,2E,|C,E,C,|
%
V:1
B>AA|cB/A/G/F/|B/c/d/e/f|(3G/A/B/MG3/2F/|F3:|
V:2
D,E,F,/G,/|A,G,F,|G,2F,|B,,C,C,|F,3:|
W:
W:
W:  From Musica Viva - http://www.musicaviva.com
W:  the Internet center for free sheet music downloads.


